public/icon/svg/Halo_A.svg

<?xml version="1.0" encoding="UTF-8"?>
<svg width="1024px" height="1024px" viewBox="0 0 1024 1024" version="1.1" xmlns="http://www.w3.org/2000/svg" xmlns:xlink="http://www.w3.org/1999/xlink">
    <title>Halo_A</title>
    <defs>
        <linearGradient x1="50%" y1="-0.138330252%" x2="50%" y2="53.9346589%" id="linearGradient-1">
            <stop stop-color="#0048AF" offset="0%"></stop>
            <stop stop-color="#003580" offset="100%"></stop>
        </linearGradient>
        <linearGradient x1="100%" y1="-1.40095626%" x2="100%" y2="101.401024%" id="linearGradient-2">
            <stop stop-color="#0B89FF" offset="0%"></stop>
            <stop stop-color="#004EB2" offset="100%"></stop>
        </linearGradient>
    </defs>
    <g id="ICON-新版方图标" stroke="none" stroke-width="1" fill="none" fill-rule="evenodd">
        <g id="多版本" transform="translate(-7, -8212)">
            <g id="Halo_A" transform="translate(7, 8212)">
                <rect id="蒙版路径" fill="#FFFFFF" x="0" y="0" width="1024" height="1024"></rect>
                <g id="编组" transform="translate(287, 220)" fill-rule="nonzero">
                    <path d="M340,550.166144 C340,559.415745 343.687021,568.285051 350.248362,574.819025 C356.809703,581.35367 365.706471,585.016016 374.977041,585 C387.509155,584.977183 401.627078,584.951741 414.148455,584.929646 C433.406329,584.894831 449,569.310106 449,550.096512 L449,34.8331343 C449,25.5949152 445.321703,16.7349824 438.773784,10.2023469 C432.226536,3.66971147 423.345204,0 414.085371,0 L374.914629,0 C365.654796,0 356.774135,3.66971147 350.226216,10.2023469 C343.678297,16.7349824 340,25.5949152 340,34.8331343 C340,138.802267 340,446.115997 340,550.166144 L340,550.166144 Z" id="路径" fill="url(#linearGradient-1)"></path>
                    <path d="M413.113379,216 C422.365705,216 431.239578,219.673064 437.782453,226.211881 C444.324657,232.750698 448,241.618399 448,250.865657 C448,321.277762 448,479.722238 448,550.134343 C448,559.381601 444.324657,568.249302 437.782453,574.788119 C431.239578,581.326267 422.365705,585 413.113379,585 C400.633154,585 386.573477,585 374.093253,585 C364.840926,585 355.967053,581.326267 349.424849,574.788119 C342.881974,568.249302 339.206631,559.381601 339.206631,550.134343 C339.206631,504.465045 339.206631,424.847855 339.206631,379.177888 C339.206631,369.931299 335.531288,361.062928 328.988414,354.524781 C322.44621,347.985964 313.572336,344.3129 304.32001,344.3129 C217.745487,344.3129 0,344.3129 0,344.3129 L0,216 L413.113379,216 Z" id="路径" fill="#0051B0"></path>
                    <path d="M0,550.17767 C0,559.425719 3.68901189,568.294261 10.2523257,574.826863 C16.8163107,581.359465 25.716379,585.019998 34.9889054,585 C47.5216136,584.973145 61.6401204,584.943025 74.1594067,584.916922 C93.4131362,584.875424 109,569.296909 109,550.094005 C109,446.211581 109,138.788414 109,34.9059901 C109,15.703086 93.4131362,0.124571071 74.1594067,0.0837423097 C61.6401204,0.0569693517 47.5216136,0.026849774 34.9889054,0 C25.716379,-0.0193335785 16.8163107,3.64052978 10.2523257,10.1731315 C3.68901189,16.7057333 0,25.5742756 0,34.8223246 L0,550.17767 L0,550.17767 Z" id="路径" fill="url(#linearGradient-2)"></path>
                </g>
            </g>
        </g>
    </g>
</svg>

<svg xmlns="http://www.w3.org/2000/svg" width="1024" height="1024"><defs><linearGradient id="a" x1="50%" x2="50%" y1="-.138%" y2="53.935%"><stop offset="0%" stop-color="#0048AF"/><stop offset="100%" stop-color="#003580"/></linearGradient><linearGradient id="b" x1="100%" x2="100%" y1="-1.401%" y2="101.401%"><stop offset="0%" stop-color="#0B89FF"/><stop offset="100%" stop-color="#004EB2"/></linearGradient></defs><g fill="none" fill-rule="evenodd"><path fill="#FFF" d="M0 0h1024v1024H0z"/><g fill-rule="nonzero"><path fill="url(#a)" d="M340 550.166a34.79 34.79 0 0 0 10.248 24.653A34.958 34.958 0 0 0 374.977 585l39.171-.07c19.258-.035 34.852-15.62 34.852-34.833V34.833a34.792 34.792 0 0 0-10.226-24.63A34.955 34.955 0 0 0 414.085 0h-39.17c-9.26 0-18.14 3.67-24.689 10.202A34.792 34.792 0 0 0 340 34.833v515.333" transform="translate(287 220)"/><path fill="#0051B0" d="M700.113 436a34.898 34.898 0 0 1 24.67 10.212A34.856 34.856 0 0 1 735 470.866v299.268a34.856 34.856 0 0 1-10.218 24.654A34.901 34.901 0 0 1 700.113 805h-39.02a34.898 34.898 0 0 1-24.668-10.212 34.854 34.854 0 0 1-10.218-24.654V599.178a34.852 34.852 0 0 0-10.219-24.653 34.896 34.896 0 0 0-24.668-10.212H287V436h413.113"/><path fill="url(#b)" d="M0 550.178a34.778 34.778 0 0 0 10.252 24.649A34.962 34.962 0 0 0 34.99 585l39.17-.083c19.254-.042 34.841-15.62 34.841-34.823V34.906C109 15.703 93.413.125 74.16.084L34.988 0a34.965 34.965 0 0 0-24.737 10.173A34.778 34.778 0 0 0 0 34.823v515.355" transform="translate(287 220)"/></g></g></svg>
